X: 1
T: The Star Of Munster
R: reel
M: 4/4
L: 1/8
K: Ador
|:c2Ac B2GB|AGEF GEDG|EAAG ABcd|eaaf gedB|
|cBAc BAGB|AGEF GEDG|EAAB cded|cABG A2:|
|:eaab ageg|agbg aged|egga gede|(3efg fa gfe|
|eaab ageg|agbg agef|g2ge a2ga|bgaf ge:|